public/images/payment/tether.svg

<svg width="142" height="45" viewBox="0 0 142 45" fill="none" xmlns="http://www.w3.org/2000/svg">
<path d="M20.2705 41.7062C30.7159 41.7062 39.1835 33.2958 39.1835 22.921C39.1835 12.5462 30.7159 4.13574 20.2705 4.13574C9.82509 4.13574 1.35742 12.5462 1.35742 22.921C1.35742 33.2958 9.82509 41.7062 20.2705 41.7062Z" fill="#26A17B"/>
<path d="M22.287 24.6542V24.6512C22.1563 24.6603 21.4812 24.6995 19.9791 24.6995C18.7781 24.6995 17.9358 24.6663 17.6378 24.6512V24.6542C13.019 24.4519 9.57392 23.6546 9.57392 22.6972C9.57392 21.7428 13.0221 20.9425 17.6378 20.7401V23.8599C17.9388 23.8811 18.8054 23.9324 20.0004 23.9324C21.4356 23.9324 22.1532 23.872 22.287 23.8599V20.7431C26.8967 20.9485 30.3327 21.7458 30.3327 22.7002C30.3327 23.6546 26.8937 24.4519 22.287 24.6572M22.287 20.42V17.6294H28.7181V13.374H11.2098V17.6294H17.6409V20.42C12.4139 20.6586 8.48535 21.6854 8.48535 22.9176C8.48535 24.1499 12.417 25.1767 17.6409 25.4183V34.364H22.2901V25.4183C27.5079 25.1797 31.4304 24.1529 31.4304 22.9207C31.4304 21.6915 27.5079 20.6616 22.2901 20.423" fill="white"/>
<path d="M55.2495 14.5369V19.049H59.6646V22.4346H55.2191V29.2993C55.2191 30.8154 56.0614 31.5554 57.2959 31.5554C57.9131 31.5554 58.6277 31.3621 59.2115 31.0721L60.3153 34.4245C59.1811 34.8745 58.2385 35.0678 57.0374 35.101C53.565 35.2309 51.2936 33.2648 51.2936 29.2993V22.4346H48.3076V19.049H51.2936V14.9567L55.2495 14.5369ZM131.367 18.8376L131.659 20.6738C132.893 18.7077 134.548 18.4178 136.171 18.4178C137.825 18.4178 139.416 19.0611 140.291 19.9309L138.507 23.3466C137.695 22.6701 136.95 22.3138 135.651 22.3138C133.575 22.3138 131.659 23.4101 131.659 26.3426V34.7235H127.7V18.8315L131.367 18.8376ZM121.664 24.9292C121.406 22.8664 119.782 21.8336 117.511 21.8336C115.37 21.8336 113.615 22.8664 113.032 24.9292H121.664ZM112.968 28.1849C113.226 30.151 114.947 31.5705 117.739 31.5705C119.198 31.5705 121.114 31.0208 122.023 30.0876L124.553 32.5701C122.865 34.3097 120.107 35.1493 117.672 35.1493C112.156 35.1493 108.875 31.7638 108.875 26.6718C108.875 21.8366 112.186 18.3544 117.38 18.3544C122.734 18.3544 126.079 21.6433 125.462 28.1849H112.968ZM95.5082 12.1631V20.994C96.9373 19.1577 98.6887 18.6081 100.507 18.6081C105.05 18.6081 107.063 21.6705 107.063 26.3456V34.7265H103.104V26.3789C103.104 23.4765 101.577 22.2534 99.4671 22.2534C97.1289 22.2534 95.5082 24.2195 95.5082 26.6054V34.7295H91.5492V12.1661L95.5082 12.1631ZM84.9935 14.3557V18.8678H89.4086V22.2534H84.9631V29.1181C84.9631 30.6342 85.8084 31.3742 87.0399 31.3742C87.6571 31.3742 88.3717 31.1809 88.9555 30.8909L90.0593 34.2433C88.9251 34.6933 87.9825 34.8866 86.7814 34.9198C83.3089 35.0497 81.0376 33.0805 81.0376 29.1181V22.2534H78.0516V18.8678H81.0376V14.7755L84.9935 14.3557ZM74.0561 24.9292C73.7977 22.8664 72.174 21.8336 69.9026 21.8336C67.7619 21.8336 66.0075 22.8664 65.4236 24.9292H74.0561ZM65.3598 28.1849C65.6182 30.151 67.3393 31.5705 70.1306 31.5705C71.5901 31.5705 73.5058 31.0208 74.4149 30.0876L76.9448 32.5701C75.2572 34.3097 72.4993 35.1493 70.0637 35.1493C64.5449 35.1493 61.267 31.7638 61.267 26.6718C61.267 21.8366 64.5783 18.3544 69.7688 18.3544C75.1234 18.3544 78.4651 21.6433 77.8509 28.1849H65.3598Z" fill="#E1E1E1"/>
</svg>

<svg width="142" height="45" viewBox="0 0 142 45" fill="none" xmlns="http://www.w3.org/2000/svg"><path d="M20.27 41.706c10.446 0 18.914-8.41 18.914-18.785S30.716 4.136 20.27 4.136c-10.446 0-18.914 8.41-18.914 18.785S9.825 41.706 20.27 41.706Z" fill="#26A17B"/><path d="M22.287 24.654v-.003c-.13.01-.806.049-2.308.049-1.2 0-2.043-.034-2.341-.049v.003c-4.619-.202-8.064-1-8.064-1.957 0-.954 3.448-1.755 8.064-1.957v3.12c.3.021 1.167.072 2.362.072 1.436 0 2.153-.06 2.287-.072v-3.117c4.61.206 8.046 1.003 8.046 1.957 0 .955-3.44 1.752-8.046 1.957m0-4.237v-2.79h6.431v-4.256H11.21v4.255h6.43v2.791c-5.226.239-9.155 1.265-9.155 2.498 0 1.232 3.932 2.259 9.156 2.5v8.946h4.65v-8.946c5.217-.238 9.14-1.265 9.14-2.497 0-1.23-3.923-2.26-9.14-2.498" fill="#fff"/><path d="M55.25 14.537v4.512h4.415v3.386h-4.446v6.864c0 1.516.842 2.256 2.077 2.256.617 0 1.332-.193 1.916-.483l1.103 3.353c-1.134.45-2.076.643-3.278.676-3.472.13-5.743-1.836-5.743-5.802v-6.864h-2.986v-3.386h2.986v-4.092l3.956-.42Zm76.117 4.3.292 1.837c1.234-1.966 2.889-2.256 4.512-2.256 1.654 0 3.245.643 4.12 1.513l-1.784 3.416c-.812-.677-1.557-1.033-2.856-1.033-2.076 0-3.992 1.096-3.992 4.029v8.38H127.7V18.832l3.667.007Zm-9.703 6.092c-.258-2.063-1.882-3.095-4.153-3.095-2.141 0-3.896 1.032-4.479 3.095h8.632Zm-8.696 3.256c.258 1.966 1.979 3.386 4.771 3.386 1.459 0 3.375-.55 4.284-1.483l2.53 2.482c-1.688 1.74-4.446 2.58-6.881 2.58-5.516 0-8.797-3.386-8.797-8.478 0-4.835 3.311-8.318 8.505-8.318 5.354 0 8.699 3.29 8.082 9.83h-12.494Zm-17.46-16.022v8.831c1.43-1.836 3.18-2.386 4.999-2.386 4.543 0 6.556 3.063 6.556 7.738v8.38h-3.959V26.38c0-2.902-1.527-4.126-3.637-4.126-2.338 0-3.959 1.966-3.959 4.352v8.125H91.55V12.166l3.96-.003Zm-10.514 2.193v4.512h4.415v3.385h-4.446v6.865c0 1.516.845 2.256 2.077 2.256.617 0 1.332-.193 1.915-.483l1.104 3.352c-1.134.45-2.076.644-3.278.677-3.472.13-5.743-1.84-5.743-5.802v-6.865h-2.986v-3.385h2.986v-4.092l3.956-.42ZM74.055 24.929c-.258-2.063-1.882-3.095-4.153-3.095-2.141 0-3.896 1.032-4.48 3.095h8.633Zm-8.696 3.256c.258 1.966 1.98 3.386 4.77 3.386 1.46 0 3.376-.55 4.285-1.483l2.53 2.482c-1.688 1.74-4.446 2.58-6.881 2.58-5.52 0-8.797-3.386-8.797-8.478 0-4.835 3.311-8.318 8.502-8.318 5.354 0 8.696 3.29 8.082 9.83H65.36Z" fill="#E1E1E1"/></svg>
